flags/gu.svg

<svg width="512" height="512" viewBox="0 0 512 512" fill="none" xmlns="http://www.w3.org/2000/svg">
<rect width="512" height="512" fill="var(--flag-palette-blue, #0052b4)"/>
<path fill-rule="evenodd" clip-rule="evenodd" d="M512 44.5219V2.23802e-05L1.94611e-06 0L0 44.5219L512 44.5219ZM512 512V467.479L1.94611e-06 467.479L0 512H512Z" fill="var(--flag-palette-bright-red, #d80027)"/>
<path d="M241.513 417.597C238.015 414.597 155.826 343.149 155.826 256C155.826 168.851 238.014 97.4024 241.513 94.4034L256 81.9854L270.487 94.4024C273.985 97.4024 356.174 168.85 356.174 256C356.174 343.15 273.986 414.599 270.487 417.597L256 430.015L241.513 417.597Z" fill="var(--flag-palette-bright-red, #d80027)"/>
<path d="M333.913 256.001C333.913 178.088 256 111.305 256 111.305C256 111.305 178.087 178.09 178.087 256.001C178.087 279.836 185.384 302.625 195.506 322.784H316.494C326.616 302.625 333.913 279.836 333.913 256.001Z" fill="var(--flag-palette-light-blue, #338af3)"/>
<path d="M333.913 256C333.913 279.835 326.616 302.624 316.494 322.783L256 333.913L195.506 322.783C185.384 302.625 178.087 279.835 178.087 256H333.913Z" fill="var(--flag-palette-blue, #0052b4)"/>
<path d="M256 400.696C256 400.696 293.528 368.519 316.494 322.783H195.506C218.472 368.519 256 400.696 256 400.696Z" fill="var(--flag-palette-yellow, #ffda44)"/>
<path d="M205.913 211.479H306.087L256 261.566L205.913 211.479Z" fill="var(--flag-palette-green, #6da544)"/>
<path d="M239.304 244.87H272.695V345.044H239.304V244.87Z" fill="var(--flag-palette-dark-red, #a2001d)"/>
</svg>

<svg xmlns="http://www.w3.org/2000/svg" width="512" height="512" fill="none"><path fill="var(--flag-palette-blue, #0052b4)" d="M0 0h512v512H0z"/><path fill="var(--flag-palette-bright-red, #d80027)" fill-rule="evenodd" d="M512 44.5V0H0v44.5zm0 467.5v-44.5H0V512z" clip-rule="evenodd"/><path fill="var(--flag-palette-bright-red, #d80027)" d="M241.5 417.6c-3.5-3-85.7-74.5-85.7-161.6S238 97.4 241.5 94.4L256 82l14.5 12.4c3.5 3 85.7 74.4 85.7 161.6S274 414.6 270.5 417.6L256 430z"/><path fill="var(--flag-palette-light-blue, #338af3)" d="M334 256c0-78-78-144.7-78-144.7s-78 66.8-78 144.7a150 150 0 0 0 17.5 66.8h121a150 150 0 0 0 17.4-66.8"/><path fill="var(--flag-palette-blue, #0052b4)" d="M334 256a150 150 0 0 1-17.5 66.8L256 333.9l-60.5-11.1a150 150 0 0 1-17.4-66.8z"/><path fill="var(--flag-palette-yellow, #ffda44)" d="M256 400.7s37.5-32.2 60.5-78h-121c23 45.8 60.5 78 60.5 78"/><path fill="var(--flag-palette-green, #6da544)" d="M206 211.5h100l-50 50z"/><path fill="var(--flag-palette-dark-red, #a2001d)" d="M239.3 244.9h33.4V345h-33.4z"/></svg>
